Papirus/64x64/apps/anatine.svg

<?xml version="1.0" encoding="UTF-8" standalone="no"?>
<svg xmlns="http://www.w3.org/2000/svg" height="64" width="64" version="1">
 <path style="opacity:0.2" d="m 40.541114,9.3634535 c -0.111756,-0.0062 -0.381207,0.06004 -0.757795,0.156245 l 0.07812,0.04687 c 0.63272,0.375708 0.557442,0.6767585 -0.195313,0.7851345 -0.627,0.09028 -1.097625,0.30107 -1.097625,0.488264 0,0.0661 0.0931,0.63556 0.203114,1.269499 0.02362,0.136152 0.0288,0.331769 0.04688,0.488264 0.197314,-0.102702 0.489064,-0.194457 0.847633,-0.246092 0.752755,-0.108368 0.828033,-0.409426 0.195313,-0.785134 l -0.455985,-0.273391 0.453985,-0.367189 c 0.494384,-0.399167 0.816374,-0.92055 0.816374,-1.3241765 0,-0.153575 -0.0048,-0.231132 -0.132816,-0.238272 z M 7.2421917,12.359356 c -0.1171962,0.157195 -0.2107932,0.367588 -0.2421922,0.671978 0.052398,1.957337 1.2477596,3.456488 2.7031126,4.820044 C 10.0645,17.510189 10.449088,17.202799 10.99987,17.003806 9.3907222,15.63125 7.8171731,14.199497 7.2421917,12.359356 Z m 31.6549763,3.050701 c -0.0444,1.046027 -0.150536,2.069533 -0.32031,2.757711 -0.567982,2.305526 -1.427954,3.931473 -2.897906,5.473423 -1.143963,1.039966 -4.377859,3.171897 -4.679849,3.361891 0.141496,0 1.378116,-0.07346 2.206929,0 0.215353,0.019 0.398707,0.05244 0.60544,0.07422 0.735016,-0.526583 1.447213,-1.055286 1.86712,-1.437454 1.470692,-1.54173 2.329324,-3.166297 2.898306,-5.472423 0.281351,-1.140403 0.400307,-3.168097 0.32031,-4.757646 z M 8.8161408,20.745285 c -0.2432122,0.251672 -0.5103235,0.506703 -0.8320131,0.757795 -0.2365524,0.444846 0.035331,0.860532 0.8007541,1.23042 0.986768,0.476865 2.0003352,0.602301 4.0662682,0.503884 2.116532,-0.100837 2.397923,0.213853 3.081901,0.781215 0.627439,0.520503 0.91267,1.046266 1.019507,2.031134 0.0606,-0.491984 0.073,-0.987968 0.0468,-1.54995 -0.0614,-1.313957 -0.344589,-1.881939 -1.066365,-2.479919 -0.683978,-0.567982 -0.965369,-0.881972 -3.081901,-0.781975 -2.044734,0.098 -3.0577009,-0.026 -4.0350692,-0.491984 z M 56.978583,35.362012 c -0.03264,1.336037 -0.120876,2.647314 -0.265612,3.445288 -1.86226,10.265868 -8.411128,17.178645 -18.413404,19.428972 -2.699513,0.60734 -3.786278,0.714777 -7.527157,0.753875 -1.940677,0.02028 -3.754878,0.0122 -4.027269,-0.0156 C 20.471144,58.330569 16.102885,56.536627 12.87259,53.274732 11.567632,51.956775 10.67986,50.744814 9.9430843,49.270862 9.0441134,47.47292 8.5135305,45.550982 8.3611355,43.743041 c -0.2086933,2.320125 0.339549,5.042837 1.5819888,7.527156 0.7368557,1.473333 1.6246077,2.686113 2.9295057,4.003871 3.230295,3.261694 7.598554,5.056236 13.874551,5.699015 0.272371,0.0278 2.086532,0.0359 4.027269,0.0156 3.740879,-0.0391 4.827644,-0.146535 7.527157,-0.753876 10.002276,-2.250327 16.551264,-9.163303 18.413404,-19.428971 0.219293,-1.208761 0.31329,-3.551685 0.265612,-5.445224 z"/>
 <path style="fill:#2aa2ee" d="M 26.747561,59.976049 C 20.471364,59.33407 16.099705,57.538128 12.86961,54.276233 11.564452,52.958276 10.677881,51.746315 9.9411044,50.272363 8.3817548,47.154464 7.8929706,43.646577 8.6563459,41.052661 c 0.7589755,-2.579916 2.4857201,-5.423824 4.9160411,-8.099738 1.349556,-1.483952 2.032334,-2.447921 2.656714,-3.659881 0.752976,-1.459953 0.834173,-2.437922 0.770775,-3.793878 -0.0614,-1.315957 -0.343789,-1.881939 -1.065366,-2.481919 -0.683977,-0.565982 -0.965968,-0.879972 -3.0825,-0.777975 -2.065933,0.098 -3.0791002,-0.028 -4.0658683,-0.503984 C 8.0207665,21.365298 7.7495753,20.947312 7.9861676,20.501326 9.2165278,19.541757 9.6481138,18.491991 11.00007,18.003407 9.0213341,16.315861 7.0675973,14.550319 7.0001995,12.0292 7.139195,10.678844 8.3885546,11.003633 8.3885546,11.003633 c 1.9589964,0.396807 3.9836714,0.795875 5.8286114,0.858232 0.530563,-0.07196 1.089885,-0.213433 1.24298,-0.314389 0.153095,-0.100957 0.570301,-0.699298 0.92715,-1.329657 1.390755,-2.4567208 2.863507,-4.0428695 4.513454,-4.8606431 1.901158,-0.9424095 4.591051,-1.4465332 7.144169,-1.3388967 3.0695,0.1293959 5.676616,1.1907415 7.805547,3.1776972 1.463493,1.3658359 2.431921,1.7073648 3.823876,1.3484764 0.979189,-0.2524718 1.001288,-0.2512319 1.001288,0.055918 0,0.403627 -0.32211,0.92663 -0.816494,1.3257971 l -0.455445,0.3677079 0.459125,0.272631 c 0.63272,0.375708 0.557782,0.677858 -0.194973,0.786215 -0.627,0.09028 -1.096925,0.29821 -1.096925,0.485404 0,0.0661 0.08998,0.63884 0.199994,1.272779 0.269851,1.55527 0.173714,4.568852 -0.193194,6.056004 -0.567982,2.306326 -1.429954,3.930273 -2.899906,5.472223 -1.143963,1.039966 -4.375859,3.173897 -4.677849,3.363891 0.141496,0 1.379615,-0.07268 2.208529,7.84e-4 3.033701,0.268912 5.146433,0.780215 8.192935,2.199929 2.877506,1.340897 4.100267,1.485512 5.692815,0.673138 1.016188,-0.518363 2.47092,-1.624307 3.557885,-3.0893 0.92997,-1.251959 1.483952,-1.783942 2.347924,-1.783942 0.845993,0 1.453733,0.557582 2.094133,1.53495 0.90679,1.384096 1.401434,2.372524 1.753343,4.783446 0.251492,1.722964 0.180834,5.767413 -0.130776,7.485157 -1.86226,10.265868 -8.413928,17.177445 -18.416204,19.427772 -2.699513,0.60734 -3.787078,0.716517 -7.527957,0.755615 -1.940677,0.02028 -3.751278,0.014 -4.023669,-0.0138 z"/>
 <path style="fill:#ffffff;fill-opacity:1;opacity:0.2" d="M 27.082031 4.0058594 C 24.830787 4.0431283 22.563904 4.5328136 20.900391 5.3574219 C 19.250444 6.1751955 17.777474 7.7620292 16.386719 10.21875 C 16.02987 10.849109 15.614033 11.445918 15.460938 11.546875 C 15.307843 11.647831 14.74736 11.789368 14.216797 11.861328 C 12.371857 11.798971 10.347668 11.400713 8.3886719 11.003906 C 8.3886719 11.003906 7.1389955 10.678941 7 12.029297 C 7.0060609 12.256012 7.0429089 12.470559 7.078125 12.685547 C 7.3805268 11.749814 8.3886719 12.001953 8.3886719 12.001953 C 10.347668 12.39876 12.371857 12.797018 14.216797 12.859375 C 14.74736 12.787415 15.307843 12.645878 15.460938 12.544922 C 15.614033 12.443965 16.02987 11.845203 16.386719 11.214844 C 17.777474 8.7581225 19.250444 7.1732423 20.900391 6.3554688 C 22.801549 5.4130592 25.491804 4.9079885 28.044922 5.015625 C 31.114422 5.1450209 33.720678 6.2064037 35.849609 8.1933594 C 37.313102 9.5591953 38.281873 9.899904 39.673828 9.5410156 C 40.055708 9.4425527 40.205362 9.4166267 40.351562 9.3984375 C 40.54967 9.1238588 40.675781 8.8408288 40.675781 8.5996094 C 40.675781 8.2924595 40.653017 8.2924501 39.673828 8.5449219 C 38.281873 8.9038103 37.313102 8.5611484 35.849609 7.1953125 C 33.720678 5.2083568 31.114422 4.146974 28.044922 4.0175781 C 27.725782 4.0041236 27.403638 4.0005352 27.082031 4.0058594 z M 40.068359 10.726562 C 40.000478 10.793585 39.936119 10.861864 39.859375 10.923828 L 39.404297 11.291016 L 39.548828 11.376953 C 39.590132 11.369724 39.625096 11.359689 39.667969 11.353516 C 40.307602 11.261442 40.425842 11.024717 40.068359 10.726562 z M 38.701172 12.666016 C 38.624732 12.722279 38.570312 12.779662 38.570312 12.835938 C 38.570312 12.902038 38.66147 13.475436 38.771484 14.109375 C 38.868472 14.668358 38.903302 15.431347 38.910156 16.228516 C 38.950196 15.073151 38.909046 13.904157 38.771484 13.111328 C 38.733014 12.889647 38.731752 12.853683 38.701172 12.666016 z M 10.287109 18.367188 C 9.4481827 18.916789 8.9686609 19.735823 7.9863281 20.501953 C 7.8338171 20.789442 7.9138439 21.063402 8.1796875 21.322266 C 9.2507183 20.412737 9.7298372 19.459025 11 19 C 10.75706 18.792811 10.525851 18.577982 10.287109 18.367188 z M 53 26.003906 C 52.136028 26.003906 51.582314 26.53515 50.652344 27.787109 C 49.565379 29.252102 48.109938 30.35859 47.09375 30.876953 C 45.501202 31.689327 44.27985 31.544022 41.402344 30.203125 C 38.355842 28.783411 36.242685 28.272818 33.208984 28.003906 C 32.993446 27.984804 32.744399 27.993422 32.5 27.990234 C 31.838784 28.43992 31.111905 28.929596 31 29 C 31.141496 29 32.38007 28.928489 33.208984 29.001953 C 36.242685 29.270865 38.355842 29.781458 41.402344 31.201172 C 44.27985 32.542069 45.501202 32.687374 47.09375 31.875 C 48.109938 31.356637 49.565379 30.250149 50.652344 28.785156 C 51.582314 27.533197 52.136028 27.001953 53 27.001953 C 53.845993 27.001953 54.45335 27.557788 55.09375 28.535156 C 56.00054 29.919252 56.495747 30.909391 56.847656 33.320312 C 56.948312 34.009899 56.983675 35.095146 56.986328 36.230469 C 57.01823 34.733619 56.978344 33.217601 56.847656 32.322266 C 56.495747 29.911344 56.00054 28.923158 55.09375 27.539062 C 54.45335 26.561695 53.845993 26.003906 53 26.003906 z M 17 26.564453 C 16.957814 27.437763 16.771129 28.240889 16.228516 29.292969 C 15.604136 30.504929 14.921822 31.469173 13.572266 32.953125 C 11.141945 35.629039 9.4152255 38.472818 8.65625 41.052734 C 8.3817688 41.98541 8.2755575 43.038099 8.3164062 44.146484 C 8.3535675 43.404133 8.4654062 42.69926 8.65625 42.050781 C 9.4152255 39.470865 11.141945 36.627086 13.572266 33.951172 C 14.921822 32.46722 15.604136 31.502976 16.228516 30.291016 C 16.968102 28.857023 17.057056 27.883361 17 26.564453 z"/>
</svg>

<?xml version="1.0" encoding="UTF-8" standalone="no"?>
<svg xmlns="http://www.w3.org/2000/svg" height="64" width="64" version="1">
 <path style="fill:#2aa2ee" d="m26.748 59.976c-6.277-.642-10.648-2.438-13.878-5.7-1.306-1.318-2.192-2.53-2.9289-4.004-1.5593-3.118-2.0481-6.625-1.2848-9.219.75898-2.5799 2.4857-5.4238 4.916-8.0997 1.3496-1.484 2.0323-2.4479 2.6567-3.6599.75298-1.46.83417-2.4379.77078-3.7939-.0614-1.316-.34379-1.8819-1.0654-2.4819-.68398-.56598-.96597-.87997-3.0825-.77798-2.0659.098-3.0791-.028-4.0659-.50398-.7652-.370-1.0364-.788-.7998-1.234 1.2303-.959 1.6619-2.009 3.0138-2.498-1.9787-1.687-3.9324-3.453-3.9998-5.974.1390-1.35 1.3884-1.025 1.3884-1.025 1.959.39681 3.9837.79588 5.8286.85823.53056-.07196 1.0899-.21343 1.243-.31439s.57030-.69930.92715-1.3297c1.3908-2.4567 2.8635-4.0429 4.5135-4.8606 1.9012-.94241 4.5911-1.4465 7.1442-1.3389 3.0695.12940 5.6766 1.1907 7.8055 3.1777 1.4635 1.3658 2.4319 1.7074 3.8239 1.3485.97919-.25247 1.0013-.25123 1.0013.055918 0 .40363-.32211.92663-.81649 1.3258l-.45544.36771.45912.27263c.63272.37571.55778.67786-.19497.78622-.627.09028-1.0969.29821-1.0969.48540 0 .0661.08998.63884.19999 1.2728.26985 1.5553.17371 4.5689-.19319 6.056-.56798 2.3063-1.43 3.9303-2.8999 5.4722-1.144 1.04-4.3759 3.1739-4.6778 3.3639.14150 0 1.3796-.07268 2.2085.000784 3.0337.26891 5.1464.78022 8.1929 2.1999 2.8775 1.3409 4.1003 1.4855 5.6928.67314 1.0162-.51836 2.4709-1.6243 3.5579-3.0893.92997-1.252 1.484-1.7839 2.3479-1.7839.84599 0 1.4537.55758 2.0941 1.535.90679 1.3841 1.4014 2.3725 1.7533 4.7834.25149 1.723.18083 5.7674-.13078 7.4852-1.8623 10.266-8.4139 17.177-18.416 19.428-2.6995.60734-3.7871.71652-7.528.75562-1.9407.02028-3.7513.014-4.0237-.0138z"/>
 <path style="opacity:.2;fill:#ffffff" d="m27.082 4.0059c-2.251.0372-4.518.5269-6.182 1.3515-1.65.8178-3.123 2.4046-4.513 4.8616-.357.630-.773 1.227-.926 1.328s-.714.242-1.244.314c-1.845-.062-3.869-.460-5.8283-.857 0 0-1.2497-.325-1.3887 1.025.0061.228.0427.443.0781.659.3024-.936 1.3106-.684 1.3106-.684 1.9593.397 3.9833.795 5.8283.857.530-.072 1.091-.213 1.244-.314s.569-0.7.926-1.33c1.39-2.4569 2.863-4.0418 4.513-4.8596 1.902-.9424 4.592-1.4475 7.145-1.3398 3.069.1294 5.676 1.1908 7.805 3.1777 1.463 1.3658 2.432 1.7085 3.824 1.3496.380-.0981.529-.1242.676-.1426.199-.2756.326-.5605.326-.8027 0-.3071-.023-.3071-1.002-.0547-1.392.3589-2.361.0162-3.824-1.3496-2.129-1.9869-4.736-3.0483-7.805-3.1777-.319-.0135-.641-.0171-.963-.0117zm12.988 6.7211c-.068.067-.133.136-.211.199l-.455.367.143.084c.042-.007.077-.017.121-.023.639-.092.758-.330.402-.627zm-1.369 1.941c-.076.056-.131.114-.131.170 0 .066.091.639.201 1.273.097.559.132 1.321.139 2.118.040-1.156-.001-2.325-.139-3.118-.038-.220-.039-.256-.070-.443zm-28.416 5.699c-.8379.550-1.3169 1.369-2.2987 2.135-.1527.288-.0714.561.1953.820 1.0693-.909 1.5492-1.861 2.8184-2.32-.244-.208-.475-.423-.715-.635zm42.715 7.637c-.864 0-1.418.531-2.348 1.783-1.087 1.465-2.542 2.572-3.558 3.09-1.593.812-2.814.667-5.692-.674-3.046-1.42-5.159-1.93-8.193-2.199-.215-.019-.463-.011-.707-.014-.663.451-1.39.941-1.502 1.012.141 0 1.38-.072 2.209.002 3.034.269 5.147.779 8.193 2.199 2.878 1.341 4.099 1.486 5.692.674 1.016-.518 2.471-1.625 3.558-3.09.930-1.252 1.484-1.783 2.348-1.783.846 0 1.453.558 2.094 1.535.907 1.384 1.402 2.372 1.754 4.783 0.1.689.136 1.774.138 2.908.032-1.496-.008-3.012-.138-3.908-.352-2.411-.847-3.399-1.754-4.783-.641-.977-1.248-1.535-2.094-1.535zm-36 .562c-.042.873-.229 1.676-.771 2.727-.625 1.212-1.307 2.176-2.657 3.66-2.43 2.676-4.1568 5.52-4.9158 8.1-.2746.933-.3808 1.986-.3398 3.095.0372-.742.1490-1.447.3398-2.095.7590-2.58 2.4858-5.424 4.9158-8.1 1.35-1.484 2.032-2.448 2.657-3.66.739-1.434.828-2.408.771-3.727z"/>
 <path style="opacity:.2" d="m40.543 9.3631c-.02875-.00161-.15287.035628-.19531.041016-.1327.18264-.29165.36272-.48828.52148l-.45508.36719.45898.27344c.09565.05679.14362.10714.20703.16016.36826-.36430.60547-.78658.60547-1.127 0-.15358-.0049-.22918-.13281-.23633zm-.99805 2.0137c-.56059.09871-.97461.28698-.97461.46094 0 .04308.07377.47985.13086.83008.17783-.13089.52829-.25131.96680-.31445.75276-.10836.82803-.41140.19531-.78711zm-32.467 1.31c-.0332.103-.0643.209-.0781.342.059093 2.2105 1.5804 3.8324 3.2852 5.3379.212-.139.442-.267.715-.365-1.7999-1.535-3.5642-3.141-3.9219-5.315zm31.832 3.541c-.03851 1.1111-.15217 2.2085-.33203 2.9375-.56798 2.3063-1.4304 3.9307-2.9004 5.4727-1.144 1.04-4.376 3.174-4.678 3.364.10501 0 .8084-.02305 1.5059-.01367 1.1224-.76353 2.4537-1.6967 3.1719-2.3496 1.47-1.542 2.3324-3.1663 2.9004-5.4727.23514-.95309.34438-2.5162.33203-3.9375zm-30.728 5.096c-.069644.05919-.12009.11907-.19531.17773-.23659.44599.035406.86243.80078 1.2324.98677.47598 1.9985.60386 4.0645.50586 2.1165-0.102 2.3981.21136 3.082.77734.72158.59998 1.005 1.1665 1.0664 2.4824.0011.02347-.001.04316 0 .06641.01647-.33918.01775-.68881 0-1.0684-.0614-1.316-.34483-1.8805-1.0664-2.4805-.68398-.56598-.9655-.88129-3.082-.77930-2.0659.098-3.0777-.02792-4.0645-.50391-.2707-.131-.4590-.268-.6055-.410zm48.804 14.906c-.02949 1.3837-.11985 2.7511-.26953 3.5762-1.8623 10.266-8.4137 17.177-18.416 19.428-2.6995.60734-3.7865.71676-7.5273.75586-1.9407.02028-3.753.01413-4.0254-.01367v-.002c-6.276-.642-10.649-2.437-13.879-5.699-1.305-1.318-2.191-2.53-2.9276-4.004-.9746-1.948-1.5311-4.049-1.625-5.984-.082255 2.1948.47923 4.6934 1.625 6.9844.73678 1.474 1.6226 2.686 2.9277 4.0039 3.2301 3.2619 7.6027 5.0592 13.879 5.7012.27239.0278 2.0847.03395 4.0254.01367 3.7409-.0391 4.8278-.14852 7.5273-.75586 10.002-2.2503 16.554-9.1619 18.416-19.428.18697-1.0306.27359-2.8743.26953-4.5762z"/>
</svg>
